X:1
T:[ID 1-92b]
T:[ID 1-92b]
T:Bezeichnung standardisiert: Harlekin Sesken; Harlekin Sesken
T:Urheber unbekannt Datum in der hier transkribierten schriftlichen Quelle: vermutlich vor 1767
C:Urheber unbekannt
C:Datum in der hier transkribierten schriftlichen Quelle: vermutlich vor 1767
L:1/8
M:none
K:C
V:1 treble 
V:1
 A4 F2 E2 | D6 A2 | d2 ^c2 d2 e2 | f2 ef d4 | A4 F2 E2 | D6 A2 | B^c d2 d2 c2 | d6 D2 :: F4 F4 | %9
 F6 G2 | F4 F4 | F6 G2 | A2 GF _B2 A2 | G4 F4 | f4 g2 fg | a6 g2 | f2 e2 d2 ^c2 | d^cde d2 e2 | %18
 f2 e2 d2 c2 | dcde d2 AG |"^[sic]" F4 x2 :| %21

